img/svg/pass.svg

<?xml version="1.0" encoding="utf-8"?>
<!DOCTYPE svg PUBLIC "-//W3C//DTD SVG 1.1//EN" "http://www.w3.org/Graphics/SVG/1.1/DTD/svg11.dtd">
<svg version="1.1" baseProfile="full"
 xmlns="http://www.w3.org/2000/svg"
 xmlns:xlink="http://www.w3.org/1999/xlink"
 xmlns:ev="http://www.w3.org/2001/xml-events" 
  height="17px" 
  width="19px" 
>
<path fill="rgb( 159, 178, 184 )"
 d="M2.42900000000009,13.197 C2.42900000000009,12.97 2.61300000000006,12.782 2.83600000000001,12.782 C3.05899999999997,12.782 3.24299999999994,12.97 3.24299999999994,13.197 C3.24299999999994,13.197 3.24299999999994,14.155 3.24299999999994,14.155 C3.24299999999994,14.155 4.05300000000011,13.676 4.05300000000011,13.676 C4.24600000000009,13.563 4.49299999999994,13.632 4.60100000000011,13.827 C4.71399999999994,14.023 4.64899999999989,14.277 4.45499999999993,14.389 C4.45499999999993,14.389 3.64300000000003,14.868 3.64300000000003,14.868 C3.64300000000003,14.868 4.45499999999993,15.347 4.45499999999993,15.347 C4.64899999999989,15.459 4.71399999999994,15.713 4.60100000000011,15.908 C4.49099999999999,16.104 4.24199999999996,16.172 4.05300000000011,16.06 C4.05300000000011,16.06 3.24299999999994,15.581 3.24299999999994,15.581 C3.24299999999994,15.581 3.24299999999994,16.538 3.24299999999994,16.538 C3.24299999999994,16.765 3.05899999999997,16.949 2.83600000000001,16.949 C2.61300000000006,16.949 2.42900000000009,16.765 2.42900000000009,16.538 C2.42900000000009,16.538 2.42900000000009,15.581 2.42900000000009,15.581 C2.42900000000009,15.581 1.61899999999991,16.06 1.61899999999991,16.06 C1.42499999999995,16.172 1.17599999999993,16.104 1.06899999999996,15.906 C0.95399999999995,15.71 1.02299999999991,15.459 1.21499999999992,15.347 C1.21499999999992,15.347 2.029,14.868 2.029,14.868 C2.029,14.868 1.21499999999992,14.387 1.21499999999992,14.387 C1.02299999999991,14.274 0.95399999999995,14.023 1.06899999999996,13.822 C1.17900000000009,13.629 1.42800000000011,13.563 1.61899999999991,13.676 C1.61899999999991,13.676 2.42900000000009,14.155 2.42900000000009,14.155 C2.42900000000009,14.155 2.42900000000009,13.197 2.42900000000009,13.197 C2.42900000000009,13.197 2.42900000000009,13.197 2.42900000000009,13.197 ZM6.35400000000004,4.09999999999999 C6.35400000000004,4.09999999999999 6.35400000000004,4.09999999999999 6.35400000000004,4.09999999999999 C6.35400000000004,4.09999999999999 6.35400000000004,3.243 6.35400000000004,3.243 C6.35400000000004,2.363 6.70900000000006,1.55500000000001 7.28099999999995,0.96899999999999 C7.85300000000007,0.38200000000001 8.64599999999996,0.024 9.51299999999992,0.024 C9.51299999999992,0.024 9.51600000000008,0.024 9.51600000000008,0.024 C10.385,0.024 11.1769999999999,0.38200000000001 11.7470000000001,0.96899999999999 C11.7470000000001,0.96899999999999 11.7860000000001,1.01300000000001 11.7860000000001,1.01300000000001 C12.3340000000001,1.59100000000001 12.6769999999999,2.381 12.6769999999999,3.243 C12.6769999999999,3.243 12.6769999999999,4.09800000000001 12.6769999999999,4.09800000000001 C12.9159999999999,4.17599999999999 13.127,4.31299999999999 13.297,4.48699999999999 C13.297,4.48699999999999 13.3420000000001,4.53999999999999 13.3420000000001,4.53999999999999 C13.5989999999999,4.821 13.7539999999999,5.19499999999999 13.7539999999999,5.60499999999999 C13.7539999999999,5.60499999999999 13.7539999999999,8.441 13.7539999999999,8.441 C13.7539999999999,8.87799999999999 13.577,9.27600000000001 13.297,9.56200000000001 C13.0170000000001,9.845 12.626,10.026 12.1969999999999,10.026 C12.1969999999999,10.026 6.8309999999999,10.026 6.8309999999999,10.026 C6.40499999999997,10.026 6.01600000000008,9.845 5.7360000000001,9.56200000000001 C5.7360000000001,9.56200000000001 5.73199999999997,9.56 5.73199999999997,9.56 C5.73199999999997,9.56 5.7170000000001,9.54300000000001 5.7170000000001,9.54300000000001 C5.44699999999989,9.25700000000001 5.27399999999989,8.868 5.27399999999989,8.441 C5.27399999999989,8.441 5.27399999999989,5.60499999999999 5.27399999999989,5.60499999999999 C5.27399999999989,5.16999999999999 5.45299999999997,4.77500000000001 5.73199999999997,4.488 C5.90599999999995,4.31299999999999 6.11500000000001,4.17599999999999 6.35400000000004,4.09999999999999 C6.35400000000004,4.09999999999999 6.35400000000004,4.09999999999999 6.35400000000004,4.09999999999999 ZM11.328,4.02000000000001 C11.328,4.02000000000001 11.328,4.02000000000001 11.328,4.02000000000001 C11.328,4.02000000000001 11.328,3.243 11.328,3.243 C11.328,2.75200000000001 11.134,2.30000000000001 10.826,1.97 C10.826,1.97 10.7919999999999,1.94399999999999 10.7919999999999,1.94399999999999 C10.4639999999999,1.60599999999999 10.011,1.399 9.51600000000008,1.399 C9.51600000000008,1.399 9.51299999999992,1.399 9.51299999999992,1.399 C9.01700000000005,1.399 8.5619999999999,1.60599999999999 8.23399999999992,1.94399999999999 C8.23399999999992,1.94399999999999 8.23199999999997,1.941 8.23199999999997,1.941 C8.23199999999997,1.941 8.23199999999997,1.94399999999999 8.23199999999997,1.94399999999999 C7.9079999999999,2.27600000000001 7.702,2.73699999999999 7.702,3.243 C7.702,3.243 7.702,4.02000000000001 7.702,4.02000000000001 C7.702,4.02000000000001 11.328,4.02000000000001 11.328,4.02000000000001 C11.328,4.02000000000001 11.328,4.02000000000001 11.328,4.02000000000001 ZM12.1969999999999,5.40000000000001 C12.1969999999999,5.40000000000001 12.1969999999999,5.40000000000001 12.1969999999999,5.40000000000001 C12.1969999999999,5.40000000000001 12.018,5.40000000000001 12.018,5.40000000000001 C12.018,5.40000000000001 12.001,5.40000000000001 12.001,5.40000000000001 C12.001,5.40000000000001 11.9870000000001,5.40000000000001 11.9870000000001,5.40000000000001 C11.9870000000001,5.40000000000001 7.0440000000001,5.40000000000001 7.0440000000001,5.40000000000001 C7.0440000000001,5.40000000000001 7.02700000000004,5.40000000000001 7.02700000000004,5.40000000000001 C7.02700000000004,5.40000000000001 7.00999999999999,5.40000000000001 7.00999999999999,5.40000000000001 C7.00999999999999,5.40000000000001 6.8309999999999,5.40000000000001 6.8309999999999,5.40000000000001 C6.77299999999991,5.40000000000001 6.72299999999996,5.422 6.6869999999999,5.45599999999999 C6.65100000000007,5.495 6.62699999999995,5.54900000000001 6.62699999999995,5.60499999999999 C6.62699999999995,5.60499999999999 6.62699999999995,8.441 6.62699999999995,8.441 C6.62699999999995,8.5 6.64899999999989,8.553 6.6869999999999,8.59 C6.72299999999996,8.62700000000001 6.77299999999991,8.65100000000001 6.8309999999999,8.65100000000001 C6.8309999999999,8.65100000000001 12.1969999999999,8.65100000000001 12.1969999999999,8.65100000000001 C12.2550000000001,8.65100000000001 12.3030000000001,8.624 12.3440000000001,8.58799999999999 C12.3800000000001,8.55099999999999 12.4010000000001,8.495 12.4010000000001,8.441 C12.4010000000001,8.441 12.4010000000001,5.60499999999999 12.4010000000001,5.60499999999999 C12.4010000000001,5.55600000000001 12.384,5.50999999999999 12.3579999999999,5.47499999999999 C12.3579999999999,5.47499999999999 12.3440000000001,5.458 12.3440000000001,5.458 C12.3030000000001,5.422 12.2550000000001,5.40000000000001 12.1969999999999,5.40000000000001 C12.1969999999999,5.40000000000001 12.1969999999999,5.40000000000001 12.1969999999999,5.40000000000001 ZM17.816,15.347 C17.816,15.347 17.816,15.347 17.816,15.347 C18.008,15.459 18.075,15.713 17.9649999999999,15.908 C17.8520000000001,16.104 17.606,16.172 17.414,16.06 C17.414,16.06 16.5999999999999,15.581 16.5999999999999,15.581 C16.5999999999999,15.581 16.5999999999999,16.538 16.5999999999999,16.538 C16.5999999999999,16.765 16.4200000000001,16.949 16.1949999999999,16.949 C15.972,16.949 15.788,16.765 15.788,16.538 C15.788,16.538 15.788,15.581 15.788,15.581 C15.788,15.581 14.9780000000001,16.06 14.9780000000001,16.06 C14.787,16.172 14.538,16.104 14.4269999999999,15.906 C14.317,15.71 14.3820000000001,15.459 14.5730000000001,15.347 C14.5730000000001,15.347 15.3879999999999,14.868 15.3879999999999,14.868 C15.3879999999999,14.868 14.5709999999999,14.387 14.5709999999999,14.387 C14.3800000000001,14.274 14.3150000000001,14.023 14.4269999999999,13.822 C14.538,13.629 14.787,13.563 14.9780000000001,13.676 C14.9780000000001,13.676 15.788,14.155 15.788,14.155 C15.788,14.155 15.788,13.197 15.788,13.197 C15.788,12.97 15.972,12.782 16.1949999999999,12.782 C16.4200000000001,12.782 16.5999999999999,12.97 16.5999999999999,13.197 C16.5999999999999,13.197 16.5999999999999,14.155 16.5999999999999,14.155 C16.5999999999999,14.155 17.414,13.676 17.414,13.676 C17.606,13.563 17.8520000000001,13.632 17.9649999999999,13.827 C18.0719999999999,14.023 18.0050000000001,14.277 17.816,14.389 C17.816,14.389 17.002,14.868 17.002,14.868 C17.002,14.868 17.816,15.347 17.816,15.347 C17.816,15.347 17.816,15.347 17.816,15.347 ZM13.364,15.347 C13.364,15.347 13.364,15.347 13.364,15.347 C13.556,15.459 13.6199999999999,15.713 13.51,15.908 C13.3979999999999,16.104 13.1510000000001,16.172 12.9590000000001,16.06 C12.9590000000001,16.06 12.145,15.581 12.145,15.581 C12.145,15.581 12.145,16.538 12.145,16.538 C12.145,16.765 11.9659999999999,16.949 11.7429999999999,16.949 C11.518,16.949 11.336,16.765 11.336,16.538 C11.336,16.538 11.336,15.581 11.336,15.581 C11.336,15.581 10.5229999999999,16.06 10.5229999999999,16.06 C10.3299999999999,16.172 10.085,16.104 9.97299999999996,15.906 C9.86300000000006,15.71 9.93000000000006,15.459 10.124,15.347 C10.124,15.347 10.9380000000001,14.868 10.9380000000001,14.868 C10.9380000000001,14.868 10.1210000000001,14.387 10.1210000000001,14.387 C9.93000000000006,14.274 9.86300000000006,14.023 9.97299999999996,13.822 C10.088,13.629 10.335,13.563 10.5260000000001,13.676 C10.5260000000001,13.676 11.336,14.149 11.336,14.149 C11.336,14.149 11.336,13.197 11.336,13.197 C11.336,12.97 11.518,12.782 11.7429999999999,12.782 C11.9659999999999,12.782 12.145,12.97 12.145,13.197 C12.145,13.197 12.145,14.155 12.145,14.155 C12.145,14.155 12.9590000000001,13.676 12.9590000000001,13.676 C13.1510000000001,13.563 13.3979999999999,13.632 13.51,13.827 C13.6199999999999,14.023 13.5530000000001,14.277 13.3610000000001,14.389 C13.3610000000001,14.389 12.547,14.868 12.547,14.868 C12.547,14.868 13.364,15.347 13.364,15.347 C13.364,15.347 13.364,15.347 13.364,15.347 ZM8.90900000000011,15.347 C8.90900000000011,15.347 8.90900000000011,15.347 8.90900000000011,15.347 C9.10400000000004,15.459 9.16799999999989,15.713 9.05500000000006,15.908 C8.94499999999994,16.104 8.69599999999991,16.172 8.50500000000011,16.06 C8.50500000000011,16.06 7.69299999999998,15.581 7.69299999999998,15.581 C7.69299999999998,15.581 7.69299999999998,16.538 7.69299999999998,16.538 C7.69299999999998,16.765 7.51299999999992,16.949 7.28999999999996,16.949 C7.06500000000005,16.949 6.88300000000004,16.765 6.88300000000004,16.538 C6.88300000000004,16.538 6.88300000000004,15.581 6.88300000000004,15.581 C6.88300000000004,15.581 6.07099999999991,16.06 6.07099999999991,16.06 C5.87799999999993,16.172 5.63300000000004,16.104 5.52099999999996,15.906 C5.41000000000008,15.71 5.47499999999991,15.459 5.6690000000001,15.347 C5.6690000000001,15.347 6.47900000000004,14.868 6.47900000000004,14.868 C6.47900000000004,14.868 5.66699999999992,14.387 5.66699999999992,14.387 C5.47499999999991,14.274 5.41000000000008,14.023 5.52099999999996,13.822 C5.63300000000004,13.629 5.87799999999993,13.563 6.07400000000007,13.676 C6.07400000000007,13.676 6.88300000000004,14.149 6.88300000000004,14.149 C6.88300000000004,14.149 6.88300000000004,13.197 6.88300000000004,13.197 C6.88300000000004,12.97 7.06500000000005,12.782 7.28999999999996,12.782 C7.51299999999992,12.782 7.69299999999998,12.97 7.69299999999998,13.197 C7.69299999999998,13.197 7.69299999999998,14.155 7.69299999999998,14.155 C7.69299999999998,14.155 8.50700000000006,13.676 8.50700000000006,13.676 C8.69900000000007,13.563 8.94800000000009,13.632 9.05500000000006,13.827 C9.16799999999989,14.023 9.09899999999993,14.277 8.90900000000011,14.389 C8.90900000000011,14.389 8.09500000000003,14.868 8.09500000000003,14.868 C8.09500000000003,14.868 8.90900000000011,15.347 8.90900000000011,15.347 C8.90900000000011,15.347 8.90900000000011,15.347 8.90900000000011,15.347 Z "/>
</svg>

<svg baseProfile="full" xmlns="http://www.w3.org/2000/svg" height="17" width="19"><path fill="rgb( 159, 178, 184 )" d="M2.429 13.197c0-.227.184-.415.407-.415.223 0 .407.188.407.415v.958l.81-.479c.193-.113.44-.044.548.151.113.196.048.45-.146.562l-.812.479.812.479c.194.112.259.366.146.561-.11.196-.359.264-.548.152l-.81-.479v.957c0 .227-.184.411-.407.411-.223 0-.407-.184-.407-.411v-.957l-.81.479c-.194.112-.443.044-.55-.154-.115-.196-.046-.447.146-.559l.814-.479-.814-.481c-.192-.113-.261-.364-.146-.565.11-.193.359-.259.55-.146l.81.479v-.958zm3.925-9.097v-.857c0-.88.355-1.688.927-2.274.572-.587 1.365-.945 2.232-.945h.003c.869 0 1.661.358 2.231.945l.039.044c.548.578.891 1.368.891 2.23v.855c.239.078.45.215.62.389l.045.053c.257.281.412.655.412 1.065v2.836c0 .437-.177.835-.457 1.121-.28.283-.671.464-1.1.464h-5.366c-.426 0-.815-.181-1.095-.464l-.004-.002-.015-.017c-.27-.286-.443-.675-.443-1.102v-2.836c0-.435.179-.83.458-1.117.174-.175.383-.312.622-.388zm4.974-.08v-.777c0-.491-.194-.943-.502-1.273l-.034-.026c-.328-.338-.781-.545-1.276-.545h-.003c-.496 0-.951.207-1.279.545l-.002-.003v.003c-.324.332-.53.793-.53 1.299v.777h3.626zm.869 1.38h-5.3660000000000005l-.144.056-.06.149v2.836l.06.149.144.061h5.366l.147-.063.057-.147v-2.836l-.043-.13-.014-.017-.147-.058zm5.619 9.947c.192.112.259.366.149.561-.113.196-.359.264-.551.152l-.814-.479v.957c0 .227-.18.411-.405.411-.223 0-.407-.184-.407-.411v-.957l-.81.479c-.191.112-.44.044-.551-.154-.11-.196-.045-.447.146-.559l.815-.479-.817-.481c-.191-.113-.256-.364-.144-.565.111-.193.36-.259.551-.146l.81.479v-.958c0-.227.184-.415.407-.415.225 0 .405.188.405.415v.958l.814-.479c.192-.113.438-.044.551.151.107.196.04.45-.149.562l-.814.479.814.479zm-4.452 0c.192.112.256.366.146.561-.112.196-.359.264-.551.152l-.814-.479v.957c0 .227-.179.411-.402.411-.225 0-.407-.184-.407-.411v-.957l-.813.479c-.193.112-.438.044-.55-.154-.11-.196-.043-.447.151-.559l.814-.479-.817-.481c-.191-.113-.258-.364-.148-.565.115-.193.362-.259.553-.146l.81.473v-.952c0-.227.182-.415.407-.415.223 0 .402.188.402.415v.958l.814-.479c.192-.113.439-.044.551.151.11.196.043.45-.149.562l-.814.479.817.479zm-4.455 0c.195.112.259.366.146.561-.11.196-.359.264-.55.152l-.812-.479v.957c0 .227-.18.411-.403.411-.225 0-.407-.184-.407-.411v-.957l-.812.479c-.193.112-.438.044-.55-.154-.111-.196-.046-.447.148-.559l.81-.479-.812-.481c-.192-.113-.257-.364-.146-.565.112-.193.357-.259.553-.146l.809.473v-.952c0-.227.182-.415.407-.415.223 0 .403.188.403.415v.958l.814-.479c.192-.113.441-.044.548.151.113.196.044.45-.146.562l-.814.479.814.479z"/></svg>
